X:551
T: Gan ma diao    (Zou ma diao)
N: C0210
O: China,Yunnan, Binchuan
S: II, 68]
N: kleinere Variante zur 2. Strophe notiert; Verzierungen
N: Sonderzeichen: v.d. Sprache abgeleitetes Verlassen der Tonhoehe
N: von zu Pferd reisenden Kaufleuten gesungen
N: Vor- und Zwischenspiel weggelassen.
N: Pinyin-Text der ersten Strophe vorhanden!
R: Shange, Qingge]
M: 2/4
L: 1/32
K: C
c4A2A2A4c2A2 | a8a2g2e2d2 | c16
c6e2d4c4 | g6c2c4e2d2 | A16
d4c4e2d2c2d2 | d4g4e4d4
e3dc2d2c4A2G2 | A16
A4A2G2A4A2c2 | A4z2c2d2c2d4
d6e2g2e2g4 | a2g2e4d2c2d4
d4d2e2c4c2d2 | A8d4c4 | d4g4e4d4
e3dc2d2c4A2G2 | A16

